X: 55
T:The Wiggs Jigg
M:6/4
L:1/4
S:Wright 1713
Z:p
K:G
d|B>cdedc|BGdBed|gdeB2c|dGdefg|feda3|a3a3|agfefd|^cAaefd^cAdee2|d(d2d2)|
|
d|ABcB^c^d|efg^dBb|fge^dBb|fge^def|gf2(e3|e3)edc|BcddcB|ABGFDd|ABGFDG|AA
2G3|b3abg|dBGceg|A3G2||
